images/prices-icon.svg

<svg width="24" height="24" viewBox="0 0 24 24" fill="none" xmlns="http://www.w3.org/2000/svg">
<path d="M11.9999 23C18.0751 23 22.9999 18.0751 22.9999 12C22.9999 5.92487 18.0751 1 11.9999 1C5.92481 1 0.999939 5.92487 0.999939 12C0.999939 18.0751 5.92481 23 11.9999 23Z" stroke="#0C2758" stroke-width="2" stroke-miterlimit="10"/>
<path d="M16.5 8.49998L10.1 15L7.30002 12.7C7.00002 12.4 6.40002 12.4 6.10002 12.8C5.90002 13.2 6.00002 13.7 6.30002 14L9.60002 16.8C9.80002 16.9 10 17 10.2 17C10.4 17 10.6 16.9 10.8 16.8L17.7 9.79998C18 9.49998 18 8.99998 17.7 8.59998C17.4 8.19998 16.9 8.19998 16.5 8.49998Z" fill="#0C2758"/>
</svg>

<svg width="24" height="24" fill="none" xmlns="http://www.w3.org/2000/svg"><path d="M12 23c6.075 0 11-4.925 11-11S18.075 1 12 1 1 5.925 1 12s4.925 11 11 11z" stroke="#0C2758" stroke-width="2" stroke-miterlimit="10"/><path d="M16.5 8.5L10.1 15l-2.8-2.3c-.3-.3-.9-.3-1.2.1-.2.4-.1.9.2 1.2l3.3 2.8c.2.1.4.2.6.2.2 0 .4-.1.6-.2l6.9-7c.3-.3.3-.8 0-1.2-.3-.4-.8-.4-1.2-.1z" fill="#0C2758"/></svg>
